X: 20031
T: Jimmy Doyle's
R: barndance
M: 4/4
K: Dmajor
|:D2E/=F/^F/G/ A2d2|fefg f2e2|A2B/=c/^c/d/ e2f2|ef/e/ dc/B/ AGFE|
D2E/=F/^F/G/ A2d2|fefg f2e2|A2B/=c/^c/d/ egfe|1 d2f2 d4:|2 d2f2 d2A/B/=c/^c/||
|:dedc B2A2|FAde d2c2|g2fe f2ed|cdef e2A/B/=c/^c/|
dedc B2A2|FAdf a3a|^g2A2 f2A2|1 fefe d2A/B/=c/^c/:|2 fefe d4||

